icons/file-excel-fill.svg

<svg xmlns="http://www.w3.org/2000/svg" width="24" height="24" fill="none"><g clip-path="url(#a)"><g><path fill="#121212" d="M16 2L21 7V21.008C20.9997 21.2712 20.895 21.5235 20.7088 21.7095C20.5226 21.8955 20.2702 22 20.007 22H3.993C3.73038 21.9982 3.47902 21.8931 3.29322 21.7075C3.10742 21.5219 3.00209 21.2706 3 21.008V2.992C3 2.444 3.445 2 3.993 2H16ZM13.2 12L16 8H13.6L12 10.286L10.4 8H8L10.8 12L8 16H10.4L12 13.714L13.6 16H16L13.2 12Z"/></g></g><defs><clipPath id="a"><rect width="24" height="24" fill="white"/></clipPath></defs></svg>

<svg width="24" height="24" fill="none" xmlns="http://www.w3.org/2000/svg"><g clip-path="url(#a)"><path d="m16 2 5 5v14.008a.993.993 0 0 1-.993.992H3.993A1 1 0 0 1 3 21.008V2.992C3 2.444 3.445 2 3.993 2H16Zm-2.8 10L16 8h-2.4L12 10.286 10.4 8H8l2.8 4L8 16h2.4l1.6-2.286L13.6 16H16l-2.8-4Z" /></g><defs><clipPath id="a"><path fill="#fff" d="M0 0h24v24H0z"/></clipPath></defs></svg>
